dist/img/diagram.svg

<svg width="102" height="97" viewBox="0 0 102 97" fill="none" xmlns="http://www.w3.org/2000/svg">
<path fill-rule="evenodd" clip-rule="evenodd" d="M90.6411 6.46337C90.4459 6.46337 90.2507 6.39136 90.0938 6.24638C89.7738 5.94394 89.7578 5.43764 90.0586 5.11536L93.1406 1.83494C93.4415 1.51234 93.9471 1.49666 94.2704 1.79942C94.5936 2.10153 94.6096 2.60816 94.3056 2.93012L91.2268 6.21086C91.0668 6.37856 90.8555 6.46337 90.6411 6.46337Z" fill="black"/>
<path fill-rule="evenodd" clip-rule="evenodd" d="M97.5285 24.787C97.4869 24.787 97.4485 24.7841 97.41 24.778L92.9583 24.113C92.5198 24.0477 92.219 23.6403 92.283 23.2034C92.3502 22.7662 92.7567 22.4651 93.1951 22.5304L97.6437 23.1954C98.0821 23.2607 98.383 23.6681 98.319 24.105C98.2582 24.5021 97.9189 24.787 97.5285 24.787Z" fill="black"/>
<path fill-rule="evenodd" clip-rule="evenodd" d="M73.7877 6.26355C73.4228 6.26355 73.0932 6.01264 73.01 5.64203L72.0019 1.25523C71.9059 0.824779 72.1747 0.395285 72.6035 0.296712C73.0356 0.198139 73.4645 0.467294 73.5637 0.897749L74.5686 5.28455C74.6678 5.71532 74.399 6.1445 73.9669 6.24339C73.9061 6.25715 73.8453 6.26355 73.7877 6.26355Z" fill="black"/>
<path fill-rule="evenodd" clip-rule="evenodd" d="M23.1797 88.0672H39.6682V64.366H23.1797V88.0672Z" fill="#FBBC02"/>
<path fill-rule="evenodd" clip-rule="evenodd" d="M47.0354 88.0672H63.5239V51.8821H47.0354V88.0672Z" fill="black"/>
<path fill-rule="evenodd" clip-rule="evenodd" d="M70.8914 88.0672H87.3799V34.3721H70.8914V88.0672Z" fill="#FBBC02"/>
<path fill-rule="evenodd" clip-rule="evenodd" d="M17.7967 55.9956C17.563 55.9956 17.3294 55.8929 17.1726 55.6951C16.8973 55.3501 16.9517 54.8467 17.2974 54.5708L36.2982 39.3756C36.4422 39.2619 36.6182 39.2002 36.7975 39.2002H59.0851L78.5372 17.1833C78.8284 16.8524 79.3341 16.821 79.6669 17.1135C79.9966 17.406 80.0286 17.9117 79.7341 18.243L60.0452 40.5303C59.8916 40.7021 59.674 40.8004 59.4436 40.8004H37.0791L18.2959 55.8202C18.1487 55.9383 17.9727 55.9956 17.7967 55.9956Z" fill="black"/>
<path fill-rule="evenodd" clip-rule="evenodd" d="M20.9203 55.1955C20.9203 56.9209 19.5217 58.3191 17.7967 58.3191C16.0717 58.3191 14.6731 56.9209 14.6731 55.1955C14.6731 53.4705 16.0717 52.0723 17.7967 52.0723C19.5217 52.0723 20.9203 53.4705 20.9203 55.1955Z" fill="white"/>
<path fill-rule="evenodd" clip-rule="evenodd" d="M17.7965 52.8724C16.5163 52.8724 15.473 53.9145 15.473 55.1956C15.473 56.4767 16.5163 57.5191 17.7965 57.5191C19.0767 57.5191 20.12 56.4767 20.12 55.1956C20.12 53.9145 19.0767 52.8724 17.7965 52.8724ZM17.7965 59.1193C15.633 59.1193 13.8728 57.3591 13.8728 55.1956C13.8728 53.0321 15.633 51.2722 17.7965 51.2722C19.96 51.2722 21.7202 53.0321 21.7202 55.1956C21.7202 57.3591 19.96 59.1193 17.7965 59.1193Z" fill="black"/>
<path fill-rule="evenodd" clip-rule="evenodd" d="M40.1835 40.0332C40.1835 41.7585 38.7849 43.1571 37.0599 43.1571C35.3349 43.1571 33.9363 41.7585 33.9363 40.0332C33.9363 38.3082 35.3349 36.9099 37.0599 36.9099C38.7849 36.9099 40.1835 38.3082 40.1835 40.0332Z" fill="white"/>
<path fill-rule="evenodd" clip-rule="evenodd" d="M37.0599 37.7101C35.7766 37.7101 34.7364 38.7524 34.7364 40.0332C34.7364 41.3147 35.7766 42.3571 37.0599 42.3571C38.3401 42.3571 39.3834 41.3147 39.3834 40.0332C39.3834 38.7524 38.3401 37.7101 37.0599 37.7101ZM37.0599 43.9573C34.8965 43.9573 33.1362 42.197 33.1362 40.0332C33.1362 37.8698 34.8965 36.1099 37.0599 36.1099C39.2234 36.1099 40.9836 37.8698 40.9836 40.0332C40.9836 42.197 39.2234 43.9573 37.0599 43.9573Z" fill="black"/>
<path fill-rule="evenodd" clip-rule="evenodd" d="M62.1766 40.0332C62.1766 41.7585 60.7781 43.1571 59.053 43.1571C57.328 43.1571 55.9294 41.7585 55.9294 40.0332C55.9294 38.3082 57.328 36.9099 59.053 36.9099C60.7781 36.9099 62.1766 38.3082 62.1766 40.0332Z" fill="white"/>
<path fill-rule="evenodd" clip-rule="evenodd" d="M59.0531 37.7101C57.7729 37.7101 56.7296 38.7524 56.7296 40.0332C56.7296 41.3147 57.7729 42.3571 59.0531 42.3571C60.3365 42.3571 61.3766 41.3147 61.3766 40.0332C61.3766 38.7524 60.3365 37.7101 59.0531 37.7101ZM59.0531 43.9573C56.8896 43.9573 55.1294 42.197 55.1294 40.0332C55.1294 37.8698 56.8896 36.1099 59.0531 36.1099C61.2166 36.1099 62.9768 37.8698 62.9768 40.0332C62.9768 42.197 61.2166 43.9573 59.0531 43.9573Z" fill="black"/>
<path fill-rule="evenodd" clip-rule="evenodd" d="M82.2592 17.7134C82.2592 19.4385 80.8606 20.837 79.1356 20.837C77.4105 20.837 76.012 19.4385 76.012 17.7134C76.012 15.9884 77.4105 14.5898 79.1356 14.5898C80.8606 14.5898 82.2592 15.9884 82.2592 17.7134Z" fill="white"/>
<path fill-rule="evenodd" clip-rule="evenodd" d="M79.1356 15.3898C77.8555 15.3898 76.8121 16.4321 76.8121 17.7133C76.8121 18.9944 77.8555 20.0367 79.1356 20.0367C80.4158 20.0367 81.4591 18.9944 81.4591 17.7133C81.4591 16.4321 80.4158 15.3898 79.1356 15.3898ZM79.1356 21.637C76.9721 21.637 75.2119 19.8767 75.2119 17.7133C75.2119 15.5498 76.9721 13.7896 79.1356 13.7896C81.2991 13.7896 83.0593 15.5498 83.0593 17.7133C83.0593 19.8767 81.2991 21.637 79.1356 21.637Z" fill="black"/>
<path fill-rule="evenodd" clip-rule="evenodd" d="M100.457 96.1102H8.42583C7.98418 96.1102 7.62573 95.7521 7.62573 95.3101C7.62573 94.8681 7.98418 94.51 8.42583 94.51H100.457C100.898 94.51 101.257 94.8681 101.257 95.3101C101.257 95.7521 100.898 96.1102 100.457 96.1102Z" fill="black"/>
</svg>

<svg width="102" height="97" fill="none" xmlns="http://www.w3.org/2000/svg"><path fill-rule="evenodd" clip-rule="evenodd" d="M90.641 6.463a.804.804 0 01-.547-.217.804.804 0 01-.035-1.13l3.082-3.281a.798.798 0 011.13-.036c.323.303.339.81.035 1.131l-3.08 3.28a.805.805 0 01-.585.253zm6.887 18.324a.746.746 0 01-.118-.009l-4.452-.665a.802.802 0 01-.675-.91.803.803 0 01.912-.673l4.449.665a.8.8 0 01-.115 1.592zM73.788 6.264a.797.797 0 01-.778-.622l-1.008-4.387a.802.802 0 011.562-.357l1.005 4.387a.8.8 0 01-.781.979z" fill="#000"/><path fill-rule="evenodd" clip-rule="evenodd" d="M23.18 88.067h16.488V64.366H23.18v23.701z" fill="#FBBC02"/><path fill-rule="evenodd" clip-rule="evenodd" d="M47.035 88.067h16.489V51.882H47.035v36.185z" fill="#000"/><path fill-rule="evenodd" clip-rule="evenodd" d="M70.891 88.067H87.38V34.372H70.89v53.695z" fill="#FBBC02"/><path fill-rule="evenodd" clip-rule="evenodd" d="M17.797 55.996a.8.8 0 01-.5-1.425l19.001-15.195a.807.807 0 01.5-.176h22.287l19.452-22.017a.8.8 0 111.197 1.06L60.045 40.53a.806.806 0 01-.601.27H37.079L18.296 55.82a.794.794 0 01-.5.176z" fill="#000"/><path fill-rule="evenodd" clip-rule="evenodd" d="M20.92 55.196a3.123 3.123 0 11-6.247 0 3.123 3.123 0 016.247 0z" fill="#fff"/><path fill-rule="evenodd" clip-rule="evenodd" d="M17.797 52.872a2.327 2.327 0 00-2.324 2.324 2.327 2.327 0 002.324 2.323 2.327 2.327 0 002.323-2.323 2.327 2.327 0 00-2.323-2.324zm0 6.247a3.928 3.928 0 01-3.924-3.923 3.928 3.928 0 013.924-3.924 3.928 3.928 0 013.923 3.924 3.928 3.928 0 01-3.923 3.923z" fill="#000"/><path fill-rule="evenodd" clip-rule="evenodd" d="M40.184 40.033a3.124 3.124 0 11-6.248 0 3.124 3.124 0 016.248 0z" fill="#fff"/><path fill-rule="evenodd" clip-rule="evenodd" d="M37.06 37.71a2.325 2.325 0 000 4.647 2.327 2.327 0 002.323-2.324 2.327 2.327 0 00-2.323-2.323zm0 6.247a3.928 3.928 0 01-3.924-3.924 3.928 3.928 0 013.924-3.923 3.928 3.928 0 013.924 3.923 3.928 3.928 0 01-3.924 3.924z" fill="#000"/><path fill-rule="evenodd" clip-rule="evenodd" d="M62.177 40.033a3.124 3.124 0 11-6.248 0 3.124 3.124 0 016.248 0z" fill="#fff"/><path fill-rule="evenodd" clip-rule="evenodd" d="M59.053 37.71a2.327 2.327 0 00-2.323 2.323 2.327 2.327 0 002.323 2.324 2.325 2.325 0 000-4.647zm0 6.247a3.928 3.928 0 01-3.924-3.924 3.928 3.928 0 013.924-3.923 3.928 3.928 0 013.924 3.923 3.928 3.928 0 01-3.924 3.924z" fill="#000"/><path fill-rule="evenodd" clip-rule="evenodd" d="M82.26 17.713a3.124 3.124 0 11-6.248 0 3.124 3.124 0 016.247 0z" fill="#fff"/><path fill-rule="evenodd" clip-rule="evenodd" d="M79.136 15.39a2.327 2.327 0 00-2.324 2.323 2.327 2.327 0 002.324 2.324 2.327 2.327 0 002.323-2.324 2.327 2.327 0 00-2.323-2.323zm0 6.247a3.928 3.928 0 01-3.924-3.924 3.928 3.928 0 013.924-3.923 3.928 3.928 0 013.923 3.923 3.928 3.928 0 01-3.923 3.924zm21.321 74.473H8.426a.8.8 0 010-1.6h92.031a.8.8 0 010 1.6z" fill="#000"/></svg>
